packages/icons/svgs/duotone/Source=battery.svg

<svg width="24" height="24" viewBox="0 0 24 24" fill="none" xmlns="http://www.w3.org/2000/svg">
<path fill-rule="evenodd" clip-rule="evenodd" d="M23 8C23.5523 8 24 8.44772 24 9V15C24 15.5523 23.5523 16 23 16C22.4477 16 22 15.5523 22 15V9C22 8.44772 22.4477 8 23 8Z" fill="black" style="fill:black;fill-opacity:1;"/>
<path fill-rule="evenodd" clip-rule="evenodd" d="M3 6C2.44772 6 2 6.44772 2 7V17C2 17.5523 2.44772 18 3 18H18C18.5523 18 19 17.5523 19 17V7C19 6.44772 18.5523 6 18 6H3ZM0 7C0 5.34315 1.34315 4 3 4H18C19.6569 4 21 5.34315 21 7V17C21 18.6569 19.6569 20 18 20H3C1.34315 20 0 18.6569 0 17V7Z" fill="black" style="fill:black;fill-opacity:1;"/>
<path opacity="0.5" fill-rule="evenodd" clip-rule="evenodd" d="M9.5073 9.1298C9.82081 8.95229 10.2056 8.95715 10.5145 9.14251L15.5145 12.1425C15.9881 12.4267 16.1416 13.0409 15.8575 13.5145C15.5733 13.9881 14.9591 14.1416 14.4855 13.8575L11 11.7662V14C11 14.3603 10.8062 14.6927 10.4927 14.8702C10.1792 15.0477 9.79443 15.0429 9.4855 14.8575L4.4855 11.8575C4.01192 11.5733 3.85836 10.9591 4.14251 10.4855C4.42665 10.0119 5.04091 9.85836 5.51449 10.1425L9 12.2338V10C9 9.63973 9.19379 9.30731 9.5073 9.1298Z" fill="black" style="fill:black;fill-opacity:1;"/>
</svg>

<svg xmlns="http://www.w3.org/2000/svg" width="24" height="24" viewBox="0 0 24 24"><path fill-rule="evenodd" d="M23 8a1 1 0 0 1 1 1v6a1 1 0 1 1-2 0V9a1 1 0 0 1 1-1M3 6a1 1 0 0 0-1 1v10a1 1 0 0 0 1 1h15a1 1 0 0 0 1-1V7a1 1 0 0 0-1-1zM0 7a3 3 0 0 1 3-3h15a3 3 0 0 1 3 3v10a3 3 0 0 1-3 3H3a3 3 0 0 1-3-3z" clip-rule="evenodd"/><path fill-rule="evenodd" d="M9.507 9.13a1 1 0 0 1 1.008.013l5 3a1 1 0 0 1-1.03 1.714L11 11.768V14a1 1 0 0 1-1.514.857l-5-3a1 1 0 0 1 1.028-1.714L9 12.233V10a1 1 0 0 1 .507-.87" clip-rule="evenodd" opacity=".55"/></svg>
